icon/lg/aws-appflow.svg

<?xml version="1.0" encoding="UTF-8"?>
<svg viewBox="0 0 256 256" version="1.1" xmlns="http://www.w3.org/2000/svg" xmlns:xlink="http://www.w3.org/1999/xlink" preserveAspectRatio="xMidYMid" height="1em" width="1em">
  <defs>
    <linearGradient x1="0%" y1="100%" x2="100%" y2="0%" id="linearGradient-1">
      <stop stop-color="#B0084D" offset="0%"/>
      <stop stop-color="#FF4F8B" offset="100%"/>
    </linearGradient>
  </defs>
  <g>
    <rect fill="url(#linearGradient-1)" x="0" y="0" width="256" height="256"/>
    <path d="M133.3024,60.8 L83.0816,145.2384 L79.76,132.848 L73.5808,134.5056 L79.8336,157.8464 L103.1744,151.5904 L101.52,145.4112 L88.32,148.944 L136.9408,67.2032 L184.9888,67.2032 L209.008,108.8 L184.9888,150.4 L159.8816,150.4 L159.8816,156.8032 L188.6816,156.8032 L216.3968,108.8 L188.6816,60.8 L133.3024,60.8 Z M148.9312,104.4096 L150.5888,110.592 L163.9424,107.0112 L117.808,188.8032 L69.808,188.8032 L45.7888,147.2 L69.808,105.6 L89.4848,105.6 L89.4848,99.2032 L66.1152,99.2032 L38.4,147.2 L66.1152,195.2 L121.5456,195.2 L169.0784,110.9408 L172.3488,123.152 L178.5312,121.4944 L172.2752,98.1568 L148.9312,104.4096 Z" fill="#FFFFFF"/>
  </g>
</svg>

<svg width="256" height="256" xmlns="http://www.w3.org/2000/svg" preserveAspectRatio="xMidYMid"><defs><linearGradient x1="0%" y1="100%" x2="100%" y2="0%" id="a"><stop stop-color="#B0084D" offset="0%"/><stop stop-color="#FF4F8B" offset="100%"/></linearGradient></defs><path fill="url(#a)" d="M0 0h256v256H0z"/><path d="m133.302 60.8-50.22 84.438-3.322-12.39-6.18 1.658 6.254 23.34 23.34-6.256-1.654-6.179-13.2 3.533 48.62-81.74h48.049l24.019 41.596-24.02 41.6h-25.106v6.403h28.8l27.715-48.003-27.715-48h-55.38Zm15.63 43.61 1.657 6.182 13.353-3.58-46.134 81.791h-48L45.788 147.2l24.02-41.6h19.677v-6.397h-23.37L38.4 147.2l27.715 48h55.43l47.533-84.26 3.27 12.212 6.183-1.658-6.256-23.337-23.344 6.253Z" fill="#FFF"/></svg>
